svgs/solid/van-shuttle.svg

<svg xmlns="http://www.w3.org/2000/svg" viewBox="0 0 640 512"><!--! Font Awesome Pro 6.2.0 by @fontawesome - https://fontawesome.com License - https://fontawesome.com/license (Commercial License) Copyright 2022 Fonticons, Inc. --><path d="M64 104v88h96V96H72c-4.4 0-8 3.6-8 8zm482 88L465.1 96H384v96H546zm-226 0V96H224v96h96zM592 384H576c0 53-43 96-96 96s-96-43-96-96H256c0 53-43 96-96 96s-96-43-96-96H48c-26.5 0-48-21.5-48-48V104C0 64.2 32.2 32 72 32H192 352 465.1c18.9 0 36.8 8.3 49 22.8L625 186.5c9.7 11.5 15 26.1 15 41.2V336c0 26.5-21.5 48-48 48zm-64 0c0-26.5-21.5-48-48-48s-48 21.5-48 48s21.5 48 48 48s48-21.5 48-48zM160 432c26.5 0 48-21.5 48-48s-21.5-48-48-48s-48 21.5-48 48s21.5 48 48 48z"/></svg>

<svg xmlns="http://www.w3.org/2000/svg" viewBox="0 0 640 512"><!--! Font Awesome Pro 6.1.2 by @fontawesome - https://fontawesome.com License - https://fontawesome.com/license (Commercial License) Copyright 2022 Fonticons, Inc. --><path d="M592 384H576C576 437 533 480 480 480C426.1 480 384 437 384 384H256C256 437 213 480 160 480C106.1 480 64 437 64 384H48C21.49 384 0 362.5 0 336V104C0 64.24 32.24 32 72 32H465.1C483.1 32 501.9 40.34 514.1 54.78L624.1 186.5C634.7 197.1 640 212.6 640 227.7V336C640 362.5 618.5 384 592 384zM64 192H160V96H72C67.58 96 64 99.58 64 104V192zM545.1 192L465.1 96H384V192H545.1zM320 192V96H224V192H320zM480 336C453.5 336 432 357.5 432 384C432 410.5 453.5 432 480 432C506.5 432 528 410.5 528 384C528 357.5 506.5 336 480 336zM160 432C186.5 432 208 410.5 208 384C208 357.5 186.5 336 160 336C133.5 336 112 357.5 112 384C112 410.5 133.5 432 160 432z"/></svg>
